symbolic/actions/xapp-search-entire-word-symbolic.svg

<svg width="16" height="16" version="1.1" xmlns="http://www.w3.org/2000/svg">
 <path d="m3 3c-1.9796 0-3 1.1718-3 3.6074v1.8926a1.5 1.5 0 0 0 1.5 1.5 1.5 1.5 0 0 0 1.5-1.5 1.5 1.5 0 0 0-1.4902-1.5l-0.00781-0.40234c0-0.94821 0.11164-1.5979 0.33789-1.9512 0.22622-0.35325 0.6134-0.6093 1.1602-0.64648zm4 0c-1.9796 0-3 1.1718-3 3.6074v1.8926a1.5 1.5 0 0 0 1.5 1.5 1.5 1.5 0 0 0 1.5-1.5 1.5 1.5 0 0 0-1.4902-1.5l-0.00781-0.40234c0-0.94821 0.11164-1.5979 0.33789-1.9512 0.22621-0.35325 0.6134-0.6093 1.1602-0.64648zm2.5 2a1.5 1.5 0 0 0-1.5 1.5 1.5 1.5 0 0 0 1.4902 1.5l0.00781 0.40234c0 0.94821-0.11164 1.5979-0.33789 1.9512-0.22621 0.35325-0.6134 0.6093-1.1602 0.64648v1c1.9796 0 3-1.1718 3-3.6074v-1.8926a1.5 1.5 0 0 0-1.5-1.5zm4 0a1.5 1.5 0 0 0-1.5 1.5 1.5 1.5 0 0 0 1.4902 1.5l0.0078 0.40234c0 0.94821-0.11164 1.5979-0.33789 1.9512-0.2262 0.35325-0.61339 0.6093-1.1601 0.64648v1c1.9796 0 3-1.1718 3-3.6074v-1.8926a1.5 1.5 0 0 0-1.5-1.5z" fill="#f8f8f2"/>
</svg>

<svg xmlns="http://www.w3.org/2000/svg" width="16" height="16"><path d="M3 3C1.02 3 0 4.172 0 6.607V8.5A1.5 1.5 0 0 0 1.5 10 1.5 1.5 0 0 0 3 8.5 1.5 1.5 0 0 0 1.51 7l-.008-.402c0-.949.112-1.598.338-1.952.226-.353.613-.609 1.16-.646zm4 0C5.02 3 4 4.172 4 6.607V8.5A1.5 1.5 0 0 0 5.5 10 1.5 1.5 0 0 0 7 8.5 1.5 1.5 0 0 0 5.51 7l-.008-.402c0-.949.112-1.598.338-1.952.226-.353.613-.609 1.16-.646zm2.5 2A1.5 1.5 0 0 0 8 6.5 1.5 1.5 0 0 0 9.49 8l.008.402c0 .949-.112 1.598-.338 1.952-.226.353-.613.609-1.16.646v1c1.98 0 3-1.172 3-3.607V6.5A1.5 1.5 0 0 0 9.5 5zm4 0A1.5 1.5 0 0 0 12 6.5 1.5 1.5 0 0 0 13.49 8l.008.402c0 .949-.112 1.598-.338 1.952-.226.353-.613.609-1.16.646v1c1.98 0 3-1.172 3-3.607V6.5A1.5 1.5 0 0 0 13.5 5z" fill="#363636"/></svg>
